X:1
T:“Whosoever” Meaneth Me
T:“Whosoever” Meaneth Me
T:James Edwin McConnell
T:James Edwin McConnell, 1910
T:Public Domain Courtesy of the Cyber Hymnal™
T:Public Domain Courtesy of the Cyber Hymnal™
C:James Edwin McConnell
Z:Public Domain
Z:Courtesy of the Cyber Hymnal™
%%score ( 1 2 ) ( 3 4 )
L:1/8
Q:1/4=103
M:4/4
K:Bb
V:1 treble 
V:2 treble 
V:3 bass 
V:4 bass 
V:1
 [B,D][CE] | [DF]2 [DB][Ec] [Fd]2 [Ge][Fd] | [=Ec]2 [EG]2 [Ec]3 [EB] | [EA]2 [EA][EG] [EF]2 [Ge]2 | %4
w: 1.~I am|hap- py to- day, and the|sun shines bright, The|clouds have been rolled a-|
w: 2.~All my|hopes have been raised, O His|name be praised, His|glo- ry has filled my|
w: 3.~O what|won- der- ful love, O what|grace di- vine, That|Je- sus should die for|
 [Fd]6 [B,D][CE] | [DF]2 [DB]2 [Fd]2 [Ge][Fd] | [=Ec]2 [EG]2 [Ec]3 [EB] | [EA]2 [Ge]2 [Fd]2 [Ec]2 | %8
w: way; For the|Sav- ior said, who- so-|ev- er will May|come with Him to|
w: soul; I’ve been|lift- ed up, and from|sin set free, His|blood has made me|
w: me; I was|lost in sin, for the|world I pined, But|now I am set|
 B6 z2 ||"^Refrain" [B,D]2 [DF]2 [DB]2 [Fd]2 | [=Ec]>[Ed] [Ec]>[EB] [EG]4 | %11
w: stay|(to stay). * *||
w: whole|(me whole). “Who- so-|ev- er” sure- ly mean-|
w: free|(set free). * *||
 [EA]>[EB] [EA]>[EG] [EF]2 [Ge]2 | [Fd]>[Ge] [Fd]>[Ec] [DB]4 | [B,D]2 [DF]2 [DB]2 [Fd]2 | %14
w: |||
w: eth me, Sure- ly mean- eth|me, O sure- ly mean-|eth me; “Who- so-|
w: |||
 [Ec]>[Ed] [Ec]>[EB] [EG]4 | [Af]>[Af] [Af]>[Ge] [Fd]2 [Ec]2 | [DB]6 |] %17
w: |||
w: ev- er” sure- ly mean-|eth me, “Who- so- ev- er”|mean-|
w: |||
V:2
 x2 | x8 | x8 | x8 | x8 | x8 | x8 | x8 | D2 E2 D2 x2 || x8 | x8 | x8 | x8 | x8 | x8 | x8 | x6 |] %17
V:3
 [B,,F,][B,,F,] | [B,,B,]2 [B,,B,][B,,B,] [B,,B,]2 [B,,B,][B,,B,] | [C,B,]2 [C,B,]2 [C,G,]3 [C,C] | %3
 [F,C]2 [F,C][F,B,] [F,A,]2 [F,A,]2 | [B,,B,]6 [B,,F,][B,,F,] | %5
 [B,,B,]2 [B,,F,]2 [B,,B,]2 [B,,B,][B,,B,] | [C,B,]2 [C,B,]2 [C,G,]3 [C,C] | %7
 [F,C]2 [F,B,]2 [F,A,]2 [F,A,]2 | B,2 G,2 F,2 z2 || [B,,F,]2 [B,,B,]2 B,2 [G,=B,]2 | %10
 [C,C]>[C,G,] [C,G,]>[C,G,] [C,B,]4 | [F,C]>[F,C] [F,C]>[F,B,] [F,A,]2 [F,A,]2 | %12
 [B,,B,]>[B,,B,] [B,,B,]>[B,,B,] [B,,B,]4 | [B,,F,]2 [B,,B,]2 [B,,B,]2 [B,,_A,]2 | %14
 [E,G,]>[E,G,] [E,G,]>[E,G,] [E,C]4 | [F,C]>[F,C] [F,C]>[F,B,] [F,A,]2 [F,A,]2 | [B,,F,]6 |] %17
V:4
 x2 | x8 | x8 | x8 | x8 | x8 | x8 | x8 | B,,6 x2 || x4 =B,2 x2 | x8 | x8 | x8 | x8 | x8 | x8 | %16
 x6 |] %17

